Sources/FrostedUI/Resources/Icons.xcassets/quoteRight32.imageset/quote-right-32.svg

<svg width="32" height="32" viewBox="0 0 32 32" fill="none" xmlns="http://www.w3.org/2000/svg" data-fui-icon="true">
  <path
    d="M8.65332 6.66699C11.926 6.6671 14.6243 9.2523 14.6396 12.5C14.8227 15.9725 14.0687 18.4589 12.624 20.4502C11.2102 22.3987 9.18712 23.7897 7.06055 25.1719C6.5975 25.4726 5.97863 25.3409 5.67773 24.8779C5.37702 24.415 5.50803 23.7962 5.9707 23.4951C8.11828 22.0995 9.83644 20.8858 11.0049 19.2754C11.4166 18.7078 11.7675 18.0798 12.0391 17.3613C11.0733 18.0104 9.90524 18.3886 8.65332 18.3887C5.37124 18.3887 2.66699 15.7882 2.66699 12.5273C2.66724 9.2667 5.37139 6.66699 8.65332 6.66699ZM23.3203 6.66699C26.5928 6.66721 29.2913 9.25236 29.3066 12.5C29.4897 15.9726 28.7348 18.4589 27.29 20.4502C25.8762 22.3986 23.854 23.7898 21.7275 25.1719C21.2645 25.4727 20.6456 25.3409 20.3447 24.8779C20.0439 24.415 20.1749 23.7962 20.6377 23.4951C22.7852 22.0995 24.5035 20.8858 25.6719 19.2754C26.0836 18.7079 26.4345 18.0797 26.7061 17.3613C25.7403 18.0103 24.5722 18.3886 23.3203 18.3887C20.0382 18.3887 17.333 15.7882 17.333 12.5273C17.3333 9.2667 20.0383 6.66699 23.3203 6.66699Z"
    fill="currentColor"
  />
</svg>

<svg xmlns="http://www.w3.org/2000/svg" width="32" height="32" fill="none" data-fui-icon="true" viewBox="0 0 32 32"><path fill="currentColor" d="M8.653 6.667c3.273 0 5.971 2.585 5.987 5.833.183 3.473-.571 5.959-2.016 7.95-1.414 1.949-3.437 3.34-5.563 4.722a1 1 0 0 1-1.09-1.677c2.147-1.396 3.865-2.61 5.034-4.22a8.1 8.1 0 0 0 1.034-1.914 6.06 6.06 0 0 1-3.386 1.028c-3.282 0-5.986-2.6-5.986-5.862 0-3.26 2.704-5.86 5.986-5.86m14.667 0c3.273 0 5.971 2.585 5.987 5.833.183 3.473-.572 5.959-2.017 7.95-1.414 1.949-3.436 3.34-5.562 4.722a1 1 0 0 1-1.09-1.677c2.147-1.396 3.865-2.61 5.034-4.22a8.1 8.1 0 0 0 1.034-1.914 6.06 6.06 0 0 1-3.386 1.028c-3.282 0-5.987-2.6-5.987-5.862 0-3.26 2.705-5.86 5.987-5.86"/></svg>
